public/img/old-svg/youtube.svg

<svg width="21" height="15" viewBox="0 0 21 15" fill="none" xmlns="http://www.w3.org/2000/svg">
<path d="M19.7407 2.25526C19.1816 1.33465 18.5749 1.16532 17.3396 1.10092C16.1056 1.02341 13.0026 0.991211 10.3143 0.991211C7.62084 0.991211 4.5165 1.02341 3.28378 1.09973C2.05106 1.16532 1.44308 1.33346 0.878885 2.25526C0.303101 3.17467 0.00683594 4.75831 0.00683594 7.54637C0.00683594 7.54876 0.00683594 7.54995 0.00683594 7.54995C0.00683594 7.55234 0.00683594 7.55353 0.00683594 7.55353V7.55591C0.00683594 10.332 0.303101 11.9276 0.878885 12.8375C1.44308 13.7581 2.04978 13.925 3.28249 14.0026C4.5165 14.0693 7.62084 14.1087 10.3143 14.1087C13.0026 14.1087 16.1056 14.0693 17.3409 14.0037C18.5762 13.9262 19.1829 13.7593 19.7419 12.8387C20.3229 11.9288 20.6166 10.3332 20.6166 7.55711C20.6166 7.55711 20.6166 7.55353 20.6166 7.55114C20.6166 7.55114 20.6166 7.54876 20.6166 7.54757C20.6166 4.75831 20.3229 3.17467 19.7407 2.25526ZM7.73548 11.1274V3.97246L14.176 7.54995L7.73548 11.1274Z" fill="white"/>
</svg>

<svg width="21" height="15" viewBox="0 0 21 15" fill="none" xmlns="http://www.w3.org/2000/svg"><path d="M19.74 2.255c-.558-.92-1.165-1.09-2.4-1.154-1.234-.078-4.337-.11-7.026-.11-2.693 0-5.798.032-7.03.109-1.233.065-1.84.233-2.405 1.155-.576.92-.872 2.503-.872 5.291v.01c0 2.776.296 4.372.872 5.282.564.92 1.17 1.087 2.403 1.165 1.234.066 4.339.106 7.032.106 2.689 0 5.792-.04 7.027-.105 1.235-.078 1.842-.245 2.4-1.165.582-.91.876-2.506.876-5.282v-.009c0-2.79-.294-4.373-.876-5.293zM7.736 11.127V3.972l6.441 3.578-6.44 3.577z" fill="#fff"/></svg>
